svgs/uber.svg

<svg width="24" height="24" viewBox="0 0 24 24" fill="none" xmlns="http://www.w3.org/2000/svg">
<path d="M3.15067 13.4499C3.23519 13.6686 3.3522 13.8555 3.50173 14.0108C3.65126 14.1661 3.82841 14.285 4.03317 14.3674C4.23796 14.4498 4.46062 14.4909 4.70116 14.4909C4.93521 14.4909 5.15461 14.4482 5.35939 14.3626C5.56418 14.277 5.74295 14.1566 5.89572 14.0013C6.04848 13.846 6.16714 13.6606 6.25165 13.4451C6.33617 13.2296 6.37842 12.9888 6.37842 12.7226V8.61539H7.40232V15.2705H6.38817V14.6526C6.16064 14.8871 5.89246 15.0677 5.58367 15.1945C5.27485 15.3212 4.9417 15.3846 4.58415 15.3846C4.22008 15.3846 3.88041 15.3228 3.5651 15.1992C3.24981 15.0756 2.97676 14.8998 2.74599 14.6716C2.51522 14.4434 2.33317 14.1693 2.19991 13.8492C2.06663 13.5291 2 13.1726 2 12.7796V8.61539H3.0239V12.7226C3.0239 12.9888 3.06615 13.2312 3.15067 13.4499Z" fill="#FFF1C0"/>
<path d="M9.16725 8.61539V11.0398C9.39478 10.8179 9.65809 10.6421 9.95713 10.5121C10.2562 10.3822 10.5812 10.3172 10.9323 10.3172C11.2963 10.3172 11.6376 10.3837 11.9562 10.5168C12.2747 10.6499 12.551 10.8306 12.785 11.0588C13.0191 11.287 13.2044 11.5563 13.3409 11.8669C13.4774 12.1775 13.5456 12.5071 13.5456 12.8557C13.5456 13.2043 13.4774 13.5323 13.3409 13.8397C13.2044 14.1471 13.0191 14.4149 12.785 14.643C12.551 14.8712 12.2747 15.0519 11.9562 15.185C11.6376 15.3181 11.2963 15.3846 10.9323 15.3846C10.5812 15.3846 10.2545 15.3196 9.95225 15.1897C9.64995 15.0598 9.38503 14.8839 9.1575 14.662V15.2705H8.18236V8.61539H9.16725ZM9.27939 13.5117C9.36714 13.7145 9.48905 13.892 9.64508 14.0441C9.8011 14.1962 9.98313 14.3167 10.1912 14.4054C10.3992 14.4941 10.6235 14.5385 10.864 14.5385C11.0981 14.5385 11.3191 14.4941 11.5271 14.4054C11.7351 14.3167 11.9155 14.1962 12.0683 14.0441C12.2211 13.892 12.343 13.7145 12.434 13.5117C12.525 13.3089 12.5705 13.0902 12.5705 12.8557C12.5705 12.6212 12.525 12.4009 12.434 12.1949C12.343 11.9889 12.2211 11.8099 12.0683 11.6577C11.9155 11.5056 11.7352 11.3868 11.5271 11.3012C11.3191 11.2157 11.098 11.1729 10.864 11.1729C10.63 11.1729 10.409 11.2156 10.2009 11.3012C9.9929 11.3868 9.81088 11.5056 9.65483 11.6577C9.49883 11.8099 9.3753 11.9889 9.28429 12.1949C9.19327 12.4009 9.14777 12.6212 9.14777 12.8557C9.14775 13.0902 9.19163 13.3089 9.27939 13.5117Z" fill="#FFF1C0"/>
<path d="M14.1014 11.8764C14.2314 11.5722 14.4102 11.3044 14.6377 11.0731C14.8652 10.8417 15.135 10.6595 15.4471 10.5264C15.7591 10.3933 16.0972 10.3267 16.4612 10.3267C16.8188 10.3267 17.1503 10.3901 17.4559 10.5169C17.7614 10.6436 18.0247 10.8195 18.2458 11.0446C18.4668 11.2695 18.6391 11.5358 18.7626 11.8432C18.8861 12.1506 18.9479 12.4849 18.9479 12.8462V13.16H14.901C14.9335 13.3564 14.9985 13.5387 15.096 13.7066C15.1936 13.8746 15.3154 14.0203 15.4617 14.1439C15.608 14.2676 15.7738 14.3642 15.959 14.4339C16.1443 14.5036 16.341 14.5385 16.549 14.5385C17.1406 14.5385 17.6184 14.3008 17.9825 13.8254L18.6943 14.3388C18.4473 14.6621 18.1418 14.9156 17.7777 15.0994C17.4137 15.2832 17.0041 15.3751 16.549 15.3751C16.1785 15.3751 15.8323 15.3117 15.5105 15.185C15.1887 15.0582 14.9092 14.8807 14.6719 14.6526C14.4346 14.4244 14.2477 14.1566 14.1112 13.8492C13.9747 13.5418 13.9064 13.2074 13.9064 12.8462C13.9063 12.5039 13.9714 12.1807 14.1014 11.8764ZM15.4715 11.5009C15.1952 11.7259 15.0115 12.0254 14.9205 12.3993H17.9532C17.8687 12.0254 17.6883 11.7259 17.412 11.5009C17.1357 11.2759 16.8123 11.1634 16.4417 11.1634C16.0712 11.1634 15.7478 11.2759 15.4715 11.5009Z" fill="#FFF1C0"/>
<path d="M20.7908 11.6102C20.5828 11.832 20.4788 12.1331 20.4788 12.5134V15.2706H19.4939V10.4218H20.469V11.0208C20.5925 10.8243 20.7534 10.669 20.9517 10.5549C21.15 10.4408 21.3857 10.3837 21.6587 10.3837H22V11.2774H21.5904C21.2654 11.2775 20.9989 11.3884 20.7908 11.6102Z" fill="#FFF1C0"/>
</svg>

<svg xmlns="http://www.w3.org/2000/svg" viewBox="0 0 24 24"><path d="M3.15 13.45c.085.219.202.406.352.56.15.156.326.275.531.357.205.083.428.124.668.124.234 0 .454-.043.658-.128a1.62 1.62 0 0 0 .893-.918c.084-.215.126-.456.126-.722V8.615h1.024v6.656H6.388v-.618a2.353 2.353 0 0 1-.804.541c-.31.127-.642.19-1 .19-.364 0-.704-.061-1.019-.185A2.391 2.391 0 0 1 2.2 13.85a2.76 2.76 0 0 1-.2-1.07V8.616h1.024v4.108c0 .266.042.508.127.727m6.016-4.836v2.425c.228-.222.491-.398.79-.528.3-.13.624-.195.975-.195a2.63 2.63 0 0 1 1.853.742c.234.228.42.497.556.808.136.31.205.64.205.989 0 .348-.069.676-.205.984a2.56 2.56 0 0 1-1.385 1.345c-.318.133-.66.2-1.024.2-.35 0-.678-.065-.98-.195a2.593 2.593 0 0 1-.794-.528v.608h-.976V8.616h.985m.112 4.897c.088.202.21.38.366.532a1.755 1.755 0 0 0 1.22.495 1.708 1.708 0 0 0 1.57-1.027c.09-.203.135-.422.135-.656 0-.235-.045-.455-.136-.661a1.745 1.745 0 0 0-.366-.537 1.645 1.645 0 0 0-.54-.357 1.727 1.727 0 0 0-.664-.128 1.726 1.726 0 0 0-1.21.485c-.155.152-.279.33-.37.537a1.617 1.617 0 0 0-.136.66c0 .235.044.454.131.657m4.822-1.637a2.58 2.58 0 0 1 .537-.803c.227-.231.497-.414.81-.547.311-.133.65-.2 1.013-.2.358 0 .69.064.995.19a2.365 2.365 0 0 1 1.307 1.327c.123.308.185.642.185 1.003v.314H14.9c.033.196.098.379.195.547a1.658 1.658 0 0 0 .863.727c.185.07.382.105.59.105.592 0 1.07-.238 1.434-.714l.711.514a2.63 2.63 0 0 1-.916.76 2.688 2.688 0 0 1-1.229.276 2.81 2.81 0 0 1-1.038-.19 2.538 2.538 0 0 1-.84-.532 2.524 2.524 0 0 1-.56-.804 2.444 2.444 0 0 1-.205-1.003c0-.342.065-.665.195-.97m1.37-.375c-.276.225-.46.524-.55.898h3.032a1.565 1.565 0 0 0-.54-.898 1.49 1.49 0 0 0-.97-.338c-.37 0-.695.113-.97.338m5.318.109c-.207.222-.31.523-.31.903v2.758h-.986v-4.85h.975v.6a1.37 1.37 0 0 1 .483-.466c.198-.114.434-.171.707-.171H22v.893h-.41a1.05 1.05 0 0 0-.8.333"/></svg>
